X:1
T:Jingle bells
T:Jingle bells
L:1/8
M:4/4
K:G
V:1 alto nm="Viola" snm="Vla."
V:1
 vBB B2 BB B2 | BdGA B4 | cccc cB B2 | BAAB A2 d2 | vBB B2 BB B2 | BdGA B4 | cccc cBBB | ddcA uG4 | %8
 DBAG D3 D | DBAG E3 E | EcBA F3 F | ddcA B3 z | DBAG D3 D | DBAG E3 E | EcBA dddd | edcA G2 ud2 |] %16

